assets/img/icons/ui/sign-out.svg

<?xml version="1.0" encoding="utf-8"?>
<!-- Generated by IcoMoon.io -->
<!DOCTYPE svg PUBLIC "-//W3C//DTD SVG 1.1//EN" "http://www.w3.org/Graphics/SVG/1.1/DTD/svg11.dtd">
<svg version="1.1" xmlns="http://www.w3.org/2000/svg" xmlns:xlink="http://www.w3.org/1999/xlink" width="32" height="32" viewBox="0 0 32 32">
<path fill="rgb(0, 0, 0)" d="M32 0v32h-20v-14h4v10h12v-24h-12v8h-4v-12h20zM7.357 19.126l-3.242-3.126h19.885v-2h-19.885l3.242-3.126-0.874-0.874-5.003 5 5.003 5 0.874-0.874z"></path>
</svg>

<svg xmlns="http://www.w3.org/2000/svg" width="32" height="32" viewBox="0 0 32 32"><path d="M32 0v32H12V18h4v10h12V4H16v8h-4V0h20zM7.357 19.126L4.115 16H24v-2H4.115l3.242-3.126L6.483 10 1.48 15l5.003 5 .874-.874z"/></svg>
